images/icons/team.svg

<svg width="32" height="32" viewBox="0 0 32 32" fill="none" xmlns="http://www.w3.org/2000/svg">
<path d="M20.5 9.95C20.5 11.1926 19.9859 12.5997 19.1399 13.6944C18.2919 14.7917 17.1729 15.5 16 15.5C14.8271 15.5 13.7081 14.7917 12.8601 13.6944C12.0141 12.5997 11.5 11.1926 11.5 9.95C11.5 7.49706 13.51 5.5 16 5.5C18.49 5.5 20.5 7.49706 20.5 9.95Z" stroke="current-color"/>
<path d="M10.5 24C10.5 20.9624 12.9624 18.5 16 18.5C19.0376 18.5 21.5 20.9624 21.5 24V26.5H10.5V24Z" stroke="current-color"/>
<path d="M9.5 16C9.5 16.702 9.2114 17.4678 8.73333 18.0559C8.25494 18.6445 7.63549 19 7 19C6.36451 19 5.74506 18.6445 5.26667 18.0559C4.7886 17.4678 4.5 16.702 4.5 16C4.5 14.6193 5.61929 13.5 7 13.5C8.38071 13.5 9.5 14.6193 9.5 16Z" stroke="current-color"/>
<path d="M3.5 25C3.5 23.067 5.067 21.5 7 21.5C8.933 21.5 10.5 23.067 10.5 25V26.5H3.5V25Z" stroke="current-color"/>
<path d="M27.5 16C27.5 16.702 27.2114 17.4678 26.7333 18.0559C26.2549 18.6445 25.6355 19 25 19C24.3645 19 23.7451 18.6445 23.2667 18.0559C22.7886 17.4678 22.5 16.702 22.5 16C22.5 14.6193 23.6193 13.5 25 13.5C26.3807 13.5 27.5 14.6193 27.5 16Z" stroke="current-color"/>
<path d="M21.5 25C21.5 23.067 23.067 21.5 25 21.5C26.933 21.5 28.5 23.067 28.5 25V26.5H21.5V25Z" stroke="current-color"/>
</svg>

<svg width="32" height="32" fill="none" xmlns="http://www.w3.org/2000/svg"><path d="M20.5 9.95c0 1.243-.514 2.65-1.36 3.744-.848 1.098-1.967 1.806-3.14 1.806s-2.292-.708-3.14-1.806c-.846-1.094-1.36-2.501-1.36-3.744 0-2.453 2.01-4.45 4.5-4.45s4.5 1.997 4.5 4.45zM10.5 24a5.5 5.5 0 1111 0v2.5h-11V24zm-1-8c0 .702-.289 1.468-.767 2.056C8.255 18.644 7.635 19 7 19s-1.255-.355-1.733-.944C4.789 17.468 4.5 16.702 4.5 16a2.5 2.5 0 015 0zm-6 9a3.5 3.5 0 117 0v1.5h-7V25zm24-9c0 .702-.289 1.468-.767 2.056-.478.588-1.098.944-1.733.944-.636 0-1.255-.355-1.733-.944-.478-.588-.767-1.354-.767-2.056a2.5 2.5 0 015 0zm-6 9a3.5 3.5 0 117 0v1.5h-7V25z" stroke="current-color"/></svg>
